assets/Aerial tramway/Flat/aerial_tramway_flat.svg

<svg width="32" height="32" viewBox="0 0 32 32" fill="none" xmlns="http://www.w3.org/2000/svg">
<path d="M28.988 2.84564C29.0733 3.39131 28.7 3.90277 28.1544 3.98803L4.15438 7.73803C3.60871 7.82329 3.09725 7.45006 3.01199 6.9044C2.92673 6.35873 3.29996 5.84727 3.84562 5.76201L27.8456 2.01201C28.3913 1.92675 28.9028 2.29998 28.988 2.84564Z" fill="#D3D3D3"/>
<path d="M22.1544 4.92553C22.7 4.84027 23.0733 4.32881 22.988 3.78314C22.9027 3.23748 22.3913 2.86425 21.8456 2.94951L9.34561 4.90263C8.79995 4.98789 8.42672 5.49936 8.51198 6.04502C8.59724 6.59069 9.1087 6.96392 9.65437 6.87866L15 6.0434V13H17V5.7309L22.1544 4.92553Z" fill="#636363"/>
<path d="M20.9986 30H11.0014C9.89064 30 9 29.0995 9 27.9989V23.0097L12 18.5L9 14.0011C9 12.8905 9.90064 12 11.0014 12H20.9986C22.1094 12 23 12.9005 23 14.0011L20 18.5L23 23V27.9989C23 29.1095 22.0994 30 20.9986 30Z" fill="#FF9F2E"/>
<path d="M23 26H9V28H23V26Z" fill="#86D72F"/>
<path d="M14.07 23H9V14H14.07C14.58 14 15 14.3804 15 14.8609V22.139C15 22.6096 14.58 23 14.07 23ZM17.93 14H23V23H17.93C17.42 23 17 22.6196 17 22.139V14.861C17 14.3904 17.42 14 17.93 14Z" fill="#26C9FC"/>
</svg>

<svg xmlns="http://www.w3.org/2000/svg" width="32" height="32" fill="none"><path fill="#D3D3D3" d="M28.988 2.846a1 1 0 0 1-.834 1.142l-24 3.75a1 1 0 1 1-.308-1.976l24-3.75a1 1 0 0 1 1.142.834Z"/><path fill="#636363" d="M22.154 4.926a1 1 0 0 0-.308-1.976l-12.5 1.953a1 1 0 0 0 .308 1.976L15 6.043V13h2V5.73l5.154-.804Z"/><path fill="#FF9F2E" d="M20.999 30H11A2 2 0 0 1 9 27.999v-4.99l3-4.509-3-4.499A2 2 0 0 1 11.001 12H21A2 2 0 0 1 23 14.001L20 18.5l3 4.5v4.999A2 2 0 0 1 20.999 30Z"/><path fill="#86D72F" d="M23 26H9v2h14v-2Z"/><path fill="#26C9FC" d="M14.07 23H9v-9h5.07c.51 0 .93.38.93.86v7.279c0 .47-.42.861-.93.861Zm3.86-9H23v9h-5.07c-.51 0-.93-.38-.93-.861v-7.278c0-.47.42-.861.93-.861Z"/></svg>
